modules/hawcons-stroke/icons/printer.svg

<?xml version="1.0" encoding="UTF-8" standalone="no"?>
<svg width="32px" height="32px" viewBox="0 0 32 32" version="1.1" xmlns="http://www.w3.org/2000/svg" xmlns:xlink="http://www.w3.org/1999/xlink" xmlns:sketch="http://www.bohemiancoding.com/sketch/ns">
    <!-- Generator: Sketch 3.0.3 (7891) - http://www.bohemiancoding.com/sketch -->
    <title>icon 123 printer</title>
    <desc>Created with Sketch.</desc>
    <defs></defs>
    <g id="Page-1" stroke="none" stroke-width="1" fill="none" fill-rule="evenodd" sketch:type="MSPage">
        <g id="icon-123-printer" sketch:type="MSArtboardGroup" fill="#929292">
            <path d="M26,25 L28.0057181,25 C29.6594143,25 31,23.6556493 31,22.0005775 L31,12.9994225 C31,11.3428872 29.6594313,10 28.0057181,10 L26,10 L26,2.99961498 C26,1.89525812 25.1090746,1 24.0025781,1 L8.99742191,1 C7.89427625,1 7,1.88743329 7,2.99961498 L7,10 L7,10 L4.99428189,10 C3.34058566,10 2,11.3443507 2,12.9994225 L2,22.0005775 C2,23.6571128 3.3405687,25 4.99428189,25 L7,25 L7,29.000385 C7,30.1047419 7.89092539,31 8.99742191,31 L24.0025781,31 C25.1057238,31 26,30.1125667 26,29.000385 L26,25 L26,25 L26,25 Z M7,24 L5.00732994,24 C3.89833832,24 3,23.1033337 3,21.9972399 L3,13.0027601 C3,11.8935426 3.89871223,11 5.00732994,11 L27.9926701,11 C29.1016617,11 30,11.8966663 30,13.0027601 L30,21.9972399 C30,23.1064574 29.1012878,24 27.9926701,24 L26,24 L26,21 L7,21 L7,24 L7,24 L7,24 Z M8.9999602,2 C8.44769743,2 8,2.45303631 8,2.99703014 L8,10 L25,10 L25,2.99703014 C25,2.4463856 24.5452911,2 24.0000398,2 L8.9999602,2 L8.9999602,2 Z M8,22 L8,29.0029699 C8,29.5536144 8.45470893,30 8.9999602,30 L24.0000398,30 C24.5523026,30 25,29.5469637 25,29.0029699 L25,22 L8,22 L8,22 Z M25,16 C25.5522848,16 26,15.5522848 26,15 C26,14.4477152 25.5522848,14 25,14 C24.4477152,14 24,14.4477152 24,15 C24,15.5522848 24.4477152,16 25,16 L25,16 Z" id="printer" sketch:type="MSShapeGroup"></path>
        </g>
    </g>
</svg>

<svg width="32" height="32" viewBox="0 0 32 32" xmlns="http://www.w3.org/2000/svg"><path d="M26 25h2.006A2.998 2.998 0 0 0 31 22v-9c0-1.657-1.34-3-2.994-3H26V3c0-1.105-.89-2-1.997-2H8.997A1.994 1.994 0 0 0 7 3v7H4.994A2.998 2.998 0 0 0 2 13v9c0 1.657 1.34 3 2.994 3H7v4c0 1.105.89 2 1.997 2h15.006A1.994 1.994 0 0 0 26 29v-4zM7 24H5.007A2.005 2.005 0 0 1 3 21.997v-8.994C3 11.893 3.899 11 5.007 11h22.986c1.109 0 2.007.897 2.007 2.003v8.994c0 1.11-.899 2.003-2.007 2.003H26v-3H7v3zM9 2c-.552 0-1 .453-1 .997V10h17V2.997c0-.55-.455-.997-1-.997H9zM8 22v7.003c0 .55.455.997 1 .997h15c.552 0 1-.453 1-.997V22H8zm17-6a1 1 0 1 0 0-2 1 1 0 0 0 0 2z" fill="#929292" fill-rule="evenodd"/></svg>
